icons/numix/32x32/mimetypes/application-vnd.oasis.opendocument.presentation-template.svg

<?xml version="1.0" encoding="UTF-8" standalone="no"?>
<svg
   xmlns:dc="http://purl.org/dc/elements/1.1/"
   xmlns:cc="http://creativecommons.org/ns#"
   xmlns:rdf="http://www.w3.org/1999/02/22-rdf-syntax-ns#"
   xmlns:svg="http://www.w3.org/2000/svg"
   xmlns="http://www.w3.org/2000/svg"
   xmlns:sodipodi="http://sodipodi.sourceforge.net/DTD/sodipodi-0.dtd"
   xmlns:inkscape="http://www.inkscape.org/namespaces/inkscape"
   width="32"
   height="32"
   viewBox="0 0 32 32"
   id="svg3011"
   version="1.1"
   inkscape:version="0.48.5 r10040"
   sodipodi:docname="application-vnd.oasis.opendocument.presentation-template.svg">
  <metadata
     id="metadata3039">
    <rdf:RDF>
      <cc:Work
         rdf:about="">
        <dc:format>image/svg+xml</dc:format>
        <dc:type
           rdf:resource="http://purl.org/dc/dcmitype/StillImage" />
      </cc:Work>
    </rdf:RDF>
  </metadata>
  <defs
     id="defs3037" />
  <sodipodi:namedview
     pagecolor="#ffffff"
     bordercolor="#666666"
     borderopacity="1"
     objecttolerance="10"
     gridtolerance="10"
     guidetolerance="10"
     inkscape:pageopacity="0"
     inkscape:pageshadow="2"
     inkscape:window-width="1280"
     inkscape:window-height="970"
     id="namedview3035"
     showgrid="true"
     inkscape:zoom="10.429825"
     inkscape:cx="6.1051739"
     inkscape:cy="15.509302"
     inkscape:window-x="0"
     inkscape:window-y="0"
     inkscape:window-maximized="1"
     inkscape:current-layer="svg3011">
    <inkscape:grid
       type="xygrid"
       id="grid3058" />
  </sodipodi:namedview>
  <path
     inkscape:connector-curvature="0"
     style="fill:#d14626;fill-opacity:1"
     d="M 5.34375,2e-7 C 4.656276,1.52e-5 4,0.68900723 4,1.4062502 L 4,30.59375 C 4,31.270239 4.695336,32 5.34375,32 l 21.3125,0 C 27.304664,32 28,31.270239 28,30.59375 l 0,-21.5937498 0,-7.625 C 28,0.70204923 27.297951,2e-7 26.625,2e-7 l -7.625,0 -13.65625,0 z"
     id="path4-1" />
  <path
     style="fill:#000000;fill-opacity:0.19599998"
     d="m 4,24 0,6.667969 C 4,31.316407 4.6875,32 5.332031,32 l 21.335938,0 C 27.3125,32 28,31.316407 28,30.667969 L 28,24 z"
     id="path3025"
     inkscape:connector-curvature="0" />
  <path
     style="fill:#ffffff"
     inkscape:connector-curvature="0"
     id="path3009"
     d="m 8,11 5,0 0,3 -5,0 z" />
  <g
     style="fill:#ffffff"
     id="g3027"
     transform="matrix(1.0547745,0,0,1.0547745,-0.9095951,-0.64323424)">
    <path
       d="m 10.488281,27.332031 c 0,0.25 0.0078,0.484375 0.02734,0.703125 0.02344,0.214844 0.06641,0.402344 0.128906,0.5625 0.06641,0.160156 0.160157,0.285156 0.277344,0.378906 0.117187,0.09375 0.273437,0.140626 0.46875,0.140626 0.191406,0 0.34375,-0.04688 0.460937,-0.140626 0.125,-0.09375 0.214844,-0.21875 0.277344,-0.378906 0.06641,-0.167968 0.109375,-0.355468 0.128906,-0.570312 0.02344,-0.214844 0.03906,-0.445313 0.03906,-0.695313 0,-0.246093 -0.01563,-0.476562 -0.03906,-0.691406 -0.01953,-0.222656 -0.0625,-0.410156 -0.128906,-0.570313 -0.0625,-0.160156 -0.152344,-0.285156 -0.265625,-0.378906 -0.117187,-0.09375 -0.277343,-0.140625 -0.472656,-0.140625 -0.195313,0 -0.351563,0.04687 -0.46875,0.140625 -0.117187,0.09375 -0.210937,0.222656 -0.277344,0.386719 -0.0625,0.160156 -0.105469,0.347656 -0.128906,0.5625 -0.01953,0.214844 -0.02734,0.445313 -0.02734,0.691406 m -1.15625,0 c 0,-0.878906 0.183594,-1.542969 0.546875,-1.988281 0.363282,-0.453125 0.867188,-0.675781 1.511719,-0.675781 0.671875,0 1.179687,0.222656 1.53125,0.675781 0.351563,0.445312 0.527344,1.109375 0.527344,1.988281 0,0.882813 -0.179688,1.546875 -0.535157,2 C 12.558594,29.777344 12.050781,30 11.398438,30 c -0.667969,0 -1.183594,-0.222656 -1.539063,-0.667969 -0.351563,-0.453125 -0.527344,-1.117187 -0.527344,-2"
       id="path3029"
       inkscape:connector-curvature="0" />
    <path
       d="m 18.082031,24.78125 0,0.84375 -1.503906,0 0,4.269531 -1.144531,0 0,-4.269531 -1.503906,0 0,-0.84375 4.152343,0"
       id="path3031"
       inkscape:connector-curvature="0" />
    <path
       d="m 20.378906,24.722656 c 0.726563,0 1.289063,0.136719 1.6875,0.40625 0.398438,0.265625 0.601563,0.699219 0.601563,1.304688 0,0.609375 -0.203125,1.054687 -0.609375,1.328125 -0.402344,0.269531 -0.96875,0.40625 -1.707032,0.40625 l -0.40625,0 0,1.726562 -1.136718,0 0,-5.046875 c 0.113281,-0.01953 0.234375,-0.03906 0.371094,-0.05859 0.140624,-0.01562 0.28125,-0.02734 0.421874,-0.03125 0.144532,-0.01172 0.28125,-0.01953 0.417969,-0.02344 0.132813,-0.0078 0.253907,-0.01172 0.359375,-0.01172 m 0.128906,0.886719 c -0.06641,0 -0.164062,0 -0.285156,0.0078 -0.117187,0 -0.210937,0.0039 -0.277344,0.01562 l 0,1.652344 0.460938,0 c 0.363281,0 0.636719,-0.06641 0.820312,-0.191406 0.183594,-0.132812 0.277344,-0.355469 0.277344,-0.667969 0,-0.296875 -0.09375,-0.507812 -0.277344,-0.628906 -0.175781,-0.125 -0.417968,-0.1875 -0.71875,-0.1875"
       id="path3033"
       inkscape:connector-curvature="0" />
  </g>
  <path
     style="fill:#ffffff"
     inkscape:connector-curvature="0"
     id="path3011"
     d="m 8,16 5,0 0,3 -5,0 z" />
  <path
     style="fill:#ffffff"
     inkscape:connector-curvature="0"
     id="path3015"
     d="M 20,9.992539 20,14 24,14 C 24,11.785644 22.208522,9.992539 20,9.992539 z" />
  <path
     style="fill:#ffffff"
     inkscape:connector-curvature="0"
     id="path3017"
     d="M 19.001814,11 C 16.792291,11 15,12.789768 15,15 c 0,2.210233 1.792291,4 4.001814,4 C 21.211338,19 23,17.210233 23,15 l -3.998186,0 z" />
</svg>

<svg width="32" xmlns="http://www.w3.org/2000/svg" height="32" viewBox="0 0 32 32" xmlns:xlink="http://www.w3.org/1999/xlink">
<path style="fill:#d14626" d="M 5.332031 0.667969 C 4.648438 0.667969 4 1.3125 4 2 L 4 30 C 4 30.648438 4.6875 31.332031 5.332031 31.332031 L 26.667969 31.332031 C 27.3125 31.332031 28 30.648438 28 30 L 28 2 C 28 1.3125 27.351562 0.667969 26.667969 0.667969 Z "/>
<g style="fill:#fff">
<path d="M 8 10.667969 L 12.667969 10.667969 L 12.667969 14 L 8 14 Z "/>
<path d="M 8 16 L 12.667969 16 L 12.667969 19.332031 L 8 19.332031 Z "/>
<path d="M 19.691406 10.667969 L 19.691406 14.867188 L 24 14.867188 C 24 12.546875 22.070312 10.667969 19.691406 10.667969 Z "/>
<path d="M 19.078125 11.265625 C 16.699219 11.265625 14.769531 13.148438 14.769531 15.464844 C 14.769531 17.785156 16.699219 19.667969 19.078125 19.667969 C 21.457031 19.667969 23.382812 17.785156 23.382812 15.464844 L 19.078125 15.464844 Z "/>
</g>
<path style="fill:#000;fill-opacity:.196" d="M 4 23.332031 L 4 30 C 4 30.648438 4.6875 31.332031 5.332031 31.332031 L 26.667969 31.332031 C 27.3125 31.332031 28 30.648438 28 30 L 28 23.332031 Z "/>
<g style="fill:#fff">
<path d="M 10.488281 27.332031 C 10.488281 27.582031 10.496094 27.816406 10.515625 28.035156 C 10.539062 28.25 10.582031 28.4375 10.644531 28.597656 C 10.710938 28.757812 10.804688 28.882812 10.921875 28.976562 C 11.039062 29.070312 11.195312 29.117188 11.390625 29.117188 C 11.582031 29.117188 11.734375 29.070312 11.851562 28.976562 C 11.976562 28.882812 12.066406 28.757812 12.128906 28.597656 C 12.195312 28.429688 12.238281 28.242188 12.257812 28.027344 C 12.28125 27.8125 12.296875 27.582031 12.296875 27.332031 C 12.296875 27.085938 12.28125 26.855469 12.257812 26.640625 C 12.238281 26.417969 12.195312 26.230469 12.128906 26.070312 C 12.066406 25.910156 11.976562 25.785156 11.863281 25.691406 C 11.746094 25.597656 11.585938 25.550781 11.390625 25.550781 C 11.195312 25.550781 11.039062 25.597656 10.921875 25.691406 C 10.804688 25.785156 10.710938 25.914062 10.644531 26.078125 C 10.582031 26.238281 10.539062 26.425781 10.515625 26.640625 C 10.496094 26.855469 10.488281 27.085938 10.488281 27.332031 M 9.332031 27.332031 C 9.332031 26.453125 9.515625 25.789062 9.878906 25.34375 C 10.242188 24.890625 10.746094 24.667969 11.390625 24.667969 C 12.0625 24.667969 12.570312 24.890625 12.921875 25.34375 C 13.273438 25.789062 13.449219 26.453125 13.449219 27.332031 C 13.449219 28.214844 13.269531 28.878906 12.914062 29.332031 C 12.558594 29.777344 12.050781 30 11.398438 30 C 10.730469 30 10.214844 29.777344 9.859375 29.332031 C 9.507812 28.878906 9.332031 28.214844 9.332031 27.332031 "/>
<path d="M 18.082031 24.78125 L 18.082031 25.625 L 16.578125 25.625 L 16.578125 29.894531 L 15.433594 29.894531 L 15.433594 25.625 L 13.929688 25.625 L 13.929688 24.78125 L 18.082031 24.78125 "/>
<path d="M 20.378906 24.722656 C 21.105469 24.722656 21.667969 24.859375 22.066406 25.128906 C 22.464844 25.394531 22.667969 25.828125 22.667969 26.433594 C 22.667969 27.042969 22.464844 27.488281 22.058594 27.761719 C 21.65625 28.03125 21.089844 28.167969 20.351562 28.167969 L 19.945312 28.167969 L 19.945312 29.894531 L 18.808594 29.894531 L 18.808594 24.847656 C 18.921875 24.828125 19.042969 24.808594 19.179688 24.789062 C 19.320312 24.773438 19.460938 24.761719 19.601562 24.757812 C 19.746094 24.746094 19.882812 24.738281 20.019531 24.734375 C 20.152344 24.726562 20.273438 24.722656 20.378906 24.722656 M 20.507812 25.609375 C 20.441406 25.609375 20.34375 25.609375 20.222656 25.617188 C 20.105469 25.617188 20.011719 25.621094 19.945312 25.632812 L 19.945312 27.285156 L 20.40625 27.285156 C 20.769531 27.285156 21.042969 27.21875 21.226562 27.09375 C 21.410156 26.960938 21.503906 26.738281 21.503906 26.425781 C 21.503906 26.128906 21.410156 25.917969 21.226562 25.796875 C 21.050781 25.671875 20.808594 25.609375 20.507812 25.609375 "/>
</g>
</svg>
